src/icons/logo.svg

<svg width="17" height="17" viewBox="0 0 17 17" fill="none" xmlns="http://www.w3.org/2000/svg">
<g clip-path="url(#clip0_173_98)">
<path d="M14.28 0.0849991H2.72C1.26473 0.0849991 0.0849991 1.26473 0.0849991 2.72V14.28C0.0849991 15.7353 1.26473 16.915 2.72 16.915H14.28C15.7353 16.915 16.915 15.7353 16.915 14.28V2.72C16.915 1.26473 15.7353 0.0849991 14.28 0.0849991Z" fill="#0E1337"/>
<path d="M7.86585 11.302C7.13153 12.1976 5.92679 12.5283 4.85122 12.1299C3.77635 11.7307 3.06 10.6878 3.06 9.52C3.06 8.24925 3.9456 7.43124 5.12686 6.34032C6.15752 5.38832 7.41338 4.22829 8.5 2.38C9.58662 4.22829 10.8425 5.38832 11.8725 6.34032C13.0537 7.43124 13.94 8.24925 13.94 9.52C13.94 10.6878 13.2237 11.7307 12.1488 12.1299C11.0732 12.5283 9.86847 12.1976 9.13415 11.302C9.48093 12.1038 9.89194 12.8753 10.3638 13.608C10.5434 13.8858 10.3479 14.28 10.0232 14.28H6.9768C6.65144 14.28 6.45594 13.8858 6.63624 13.608C7.10806 12.8753 7.51907 12.1038 7.86585 11.302Z" fill="#CA1D1D"/>
</g>
<defs>
<clipPath id="clip0_173_98">
<rect width="17" height="17" fill="white"/>
</clipPath>
</defs>
</svg>

<svg xmlns="http://www.w3.org/2000/svg" width="17" height="17" fill="none"><g clip-path="url(#a)"><path fill="#0E1337" d="M14.28.085H2.72A2.635 2.635 0 0 0 .085 2.72v11.56a2.635 2.635 0 0 0 2.635 2.635h11.56a2.635 2.635 0 0 0 2.635-2.635V2.72A2.635 2.635 0 0 0 14.28.085Z"/><path fill="#CA1D1D" d="M7.866 11.302a2.685 2.685 0 0 1-3.015.828A2.776 2.776 0 0 1 3.06 9.52c0-1.27.886-2.089 2.067-3.18 1.03-.952 2.286-2.112 3.373-3.96 1.087 1.848 2.342 3.008 3.373 3.96 1.18 1.091 2.067 1.91 2.067 3.18 0 1.168-.716 2.21-1.791 2.61a2.685 2.685 0 0 1-3.015-.828 15.96 15.96 0 0 0 1.23 2.306c.18.278-.016.672-.34.672H6.976c-.326 0-.521-.394-.34-.672.471-.733.882-1.504 1.229-2.306Z"/></g><defs><clipPath id="a"><path fill="#fff" d="M0 0h17v17H0z"/></clipPath></defs></svg>
